X:2
T:Larry's Snoa (in G)
Z:ABC and chords by Moshe Braner
M:2/4
L:1/8
K:G
|: D |\
"G"G>F GA | BG DB, | "C"C>B, CD | E3G |\
"D"F>E FG | AF Dc | "G"B>c de | d3c |
"G"B>A Bc | BG DB, | "C"C>B, CD | E3G |\
"D"F>E FG | AF Dc | "G"B>c BA | G3 :|
|: B/c/ |\
"G"dB GB/c/ | dg gf | "C"e>d cB | "Am"c3B |\
"D"A>G FG | AF Dc | "G"B>c de | d3 B/c/ |
"G"dB GB/c/ | dg gf | "C"e>d cB | "Am"c3B |\
"D"A>G FG | AF DC | "G"B,>C B,A, | G,3 :|
